brandFactory_export/2.Regular/API_2Regular.svg

<?xml version="1.0" encoding="UTF-8"?>
<svg width="24px" height="24px" viewBox="0 0 24 24" version="1.1" xmlns="http://www.w3.org/2000/svg" xmlns:xlink="http://www.w3.org/1999/xlink">
    <title>2.Regular/API_2Regular</title>
    <g id="Symbols" stroke="none" stroke-width="1" fill="none" fill-rule="evenodd">
        <g id="2.Regular/API_2Regular" fill="#5CB615" fill-rule="nonzero">
            <path d="M21.8689076,3.0302521 C22.8369748,3.0302521 23.6235294,3.78655462 23.6235294,4.71764706 L23.6235294,19.0571429 C23.6235294,19.9882353 22.8369748,20.7445378 21.8689076,20.7445378 L1.75462185,20.7445378 C0.786554622,20.7445378 2.19149143e-10,19.9882353 2.19149143e-10,19.0571429 L2.19149143e-10,4.71764706 C2.19149143e-10,3.78655462 0.786554622,3.0302521 1.75462185,3.0302521 L21.8689076,3.0302521 Z M19.4285714,12.1193277 L18.8134454,12.1193277 L18.8134454,12.9966387 C18.8134454,13.2991597 18.5848739,13.5579832 18.2756303,13.6084034 C17.9058824,13.6655462 17.5798319,13.7630252 17.3042017,13.897479 C17.0588235,14.0151261 16.7596639,13.9714286 16.5647059,13.7798319 L15.8823529,13.1243697 L15.4184874,13.5714286 L16.1008403,14.2268908 C16.302521,14.4252101 16.3462185,14.7277311 16.205042,14.9663866 C16.1008403,15.1445378 15.9865546,15.5210084 15.9260504,15.8773109 C15.8756303,16.1764706 15.6067227,16.394958 15.2941176,16.394958 L14.3831933,16.394958 L14.3831933,16.9865546 L15.2941176,16.9865546 C15.6067227,16.9865546 15.8789916,17.2084034 15.9260504,17.5042017 C15.9865546,17.8605042 16.1008403,18.2369748 16.205042,18.4151261 C16.3495798,18.6571429 16.3058824,18.9596639 16.1008403,19.1579832 L15.9294118,19.3226891 L21.8722689,19.3226891 C22.0201681,19.3193277 22.1445378,19.2016807 22.1445378,19.0571429 L22.1445378,13.3361345 L21.6840336,13.7798319 C21.4890756,13.9647059 21.1932773,14.0151261 20.9478992,13.897479 C20.6487395,13.7563025 20.3394958,13.6655462 19.9697479,13.6084034 C19.6605042,13.5613445 19.4285714,13.302521 19.4285714,12.9966387 L19.4285714,12.1193277 Z M22.1445378,8.21344538 L1.4789916,8.21344538 L1.4789916,19.0571429 C1.4789916,19.2016807 1.6,19.3193277 1.7512605,19.3193277 L14.2184874,19.3193277 C14.2756303,19.205042 14.3428571,19.0941176 14.4369748,19.0033613 L14.8806723,18.5798319 C14.8369748,18.4588235 14.8,18.3378151 14.7663866,18.2235294 L14.2689076,18.2235294 C13.6201681,18.2235294 13.0890756,17.7159664 13.0890756,17.087395 L13.0890756,16.2941176 C13.0890756,15.6689076 13.6168067,15.1579832 14.2689076,15.1579832 L14.7663866,15.1579832 C14.7966387,15.0436975 14.8369748,14.9226891 14.8806723,14.8016807 L14.4369748,14.3747899 C14.2151261,14.1596639 14.0907563,13.8739496 14.0907563,13.5680672 C14.0907563,13.2621849 14.2151261,12.9764706 14.4369748,12.7579832 L15.0386555,12.1798319 C15.4991597,11.7361345 16.2521008,11.7327731 16.7159664,12.1798319 L17.1596639,12.6067227 C17.2773109,12.5663866 17.4016807,12.5294118 17.5260504,12.4957983 L17.5260504,12.0184874 C17.5260504,11.3932773 18.0537815,10.8823529 18.7058824,10.8823529 L19.5294118,10.8823529 C20.1781513,10.8823529 20.7092437,11.3932773 20.7092437,12.0184874 L20.7092437,12.4957983 C20.8336134,12.5294118 20.9546218,12.5663866 21.0756303,12.6067227 L21.5193277,12.1798319 C21.697479,12.0184874 21.912605,11.9176471 22.1445378,11.8739496 L22.1445378,8.21344538 Z M19.1697479,14.3310924 C20.6621849,14.3310924 21.589916,15.2252101 21.589916,16.6605042 C21.589916,18.0957983 20.6621849,18.989916 19.1697479,18.989916 C17.6773109,18.989916 16.7495798,18.0957983 16.7495798,16.6605042 C16.7495798,15.2252101 17.6773109,14.3310924 19.1697479,14.3310924 Z M19.1697479,15.5680672 C18.3731092,15.5680672 18.0336134,15.8941176 18.0336134,16.6638655 C18.0336134,17.4302521 18.3731092,17.7563025 19.1697479,17.7563025 C19.9663866,17.7563025 20.3058824,17.4302521 20.3058824,16.6638655 C20.3058824,15.897479 19.9663866,15.5680672 19.1697479,15.5680672 Z M8.65882353,10.8991597 C9.33781513,10.8991597 9.76806723,10.9932773 10.0470588,11.2554622 C10.2823529,11.4705882 10.3966387,11.8067227 10.3966387,12.2705882 C10.3966387,12.7344538 10.2890756,13.0806723 10.0739496,13.3226891 C9.82184874,13.6084034 9.42857143,13.7394958 8.85714286,13.7394958 L8.16134454,13.7394958 L8.16134454,15.2352941 L7.17310924,15.2352941 L7.17310924,10.8991597 L8.65882353,10.8991597 Z M5.10252101,10.8991597 L6.66554622,15.2319328 L5.60672269,15.2319328 L5.24705882,14.1428571 L3.84201681,14.1428571 L3.50588235,15.2319328 L2.56470588,15.2319328 L4.01344538,10.8991597 L5.10252101,10.8991597 Z M12.0941176,10.8991597 L12.0941176,15.2319328 L11.1058824,15.2319328 L11.1058824,10.8991597 L12.0941176,10.8991597 Z M4.53445378,11.9815126 L4.5210084,11.9815126 L4.07058824,13.4268908 L5.00840336,13.4268908 L4.53445378,11.9815126 Z M8.6184874,11.6151261 L8.15462185,11.6151261 L8.15462185,12.9966387 L8.64537815,12.9966387 C8.96134454,12.9966387 9.09579832,12.9529412 9.22016807,12.8319328 C9.33445378,12.7176471 9.39159664,12.5327731 9.39159664,12.2806723 C9.39159664,12.0453782 9.34117647,11.8739496 9.22689076,11.7663866 C9.10588235,11.6588235 8.92436975,11.6151261 8.6184874,11.6151261 Z M21.8722689,4.45210084 L1.75462185,4.45210084 C1.60336134,4.45210084 1.48235294,4.5697479 1.48235294,4.71428571 L1.48235294,6.78823529 L22.1445378,6.78823529 L22.1445378,4.71428571 C22.1445378,4.5697479 22.0235294,4.45210084 21.8722689,4.45210084 Z M4.99159664,4.95294118 C5.37142857,4.95294118 5.67731092,5.2487395 5.67731092,5.61176471 C5.67731092,5.97478992 5.37142857,6.27394958 4.99159664,6.27394958 C4.61176471,6.27394958 4.30588235,5.97478992 4.30588235,5.61176471 C4.30588235,5.2487395 4.61176471,4.95294118 4.99159664,4.95294118 Z M7.05210084,4.95294118 C7.43193277,4.95294118 7.73781513,5.2487395 7.73781513,5.61176471 C7.73781513,5.97478992 7.43193277,6.27394958 7.05210084,6.27394958 C6.67226891,6.27394958 6.36638655,5.97478992 6.36638655,5.61176471 C6.36302521,5.2487395 6.66890756,4.95294118 7.05210084,4.95294118 Z M2.93445378,4.95294118 C3.31428571,4.95294118 3.62016807,5.2487395 3.62016807,5.61176471 C3.62016807,5.97478992 3.31428571,6.27394958 2.93445378,6.27394958 C2.55462185,6.27394958 2.2487395,5.97478992 2.2487395,5.61176471 C2.2487395,5.2487395 2.55462185,4.95294118 2.93445378,4.95294118 Z" id="API_2Regular"></path>
        </g>
    </g>
</svg>

<svg width="24" height="24" viewBox="0 0 24 24" xmlns="http://www.w3.org/2000/svg"><path d="M21.869 3.03c.968 0 1.755.757 1.755 1.688v14.34c0 .93-.787 1.687-1.755 1.687H1.755C.787 20.745 0 19.988 0 19.057V4.717c0-.93.787-1.687 1.755-1.687h20.114zm-2.44 9.09h-.616v.877a.63.63 0 01-.537.611c-.37.058-.696.155-.972.29a.655.655 0 01-.74-.118l-.682-.656-.464.447.683.656c.202.198.245.5.104.74-.104.178-.218.554-.279.91-.05.3-.32.518-.632.518h-.91v.592h.91c.313 0 .585.221.632.517.06.357.175.733.279.911.145.242.1.545-.104.743l-.172.165h5.943a.274.274 0 00.273-.266v-5.72l-.461.443a.662.662 0 01-.736.117 3.463 3.463 0 00-.978-.289.627.627 0 01-.541-.611v-.878zm2.716-3.907H1.479v10.844c0 .145.121.262.272.262h12.467c.058-.114.125-.225.219-.316l.444-.423a6.182 6.182 0 01-.115-.356h-.497c-.649 0-1.18-.508-1.18-1.137v-.793c0-.625.528-1.136 1.18-1.136h.497c.03-.114.071-.235.115-.356l-.444-.427a1.117 1.117 0 010-1.617l.602-.578a1.22 1.22 0 011.677 0l.444.427c.117-.04.242-.078.366-.111v-.478c0-.625.528-1.136 1.18-1.136h.823c.65 0 1.18.511 1.18 1.136v.478c.125.033.246.07.367.11l.443-.426c.178-.162.394-.262.626-.306v-3.66zm-2.975 6.118c1.492 0 2.42.894 2.42 2.33 0 1.435-.928 2.329-2.42 2.329-1.493 0-2.42-.894-2.42-2.33 0-1.435.927-2.329 2.42-2.329zm0 1.237c-.797 0-1.136.326-1.136 1.096 0 .766.34 1.092 1.136 1.092.796 0 1.136-.326 1.136-1.092 0-.767-.34-1.096-1.136-1.096zM8.659 10.9c.679 0 1.11.094 1.388.356.235.216.35.552.35 1.016 0 .463-.108.81-.323 1.052-.252.285-.645.416-1.217.416h-.696v1.496h-.988V10.9H8.66zm-3.556 0l1.563 4.333h-1.06l-.359-1.09H3.842l-.336 1.09h-.941l1.448-4.333h1.09zm6.991 0v4.333h-.988v-4.333h.988zm-7.56 1.083h-.013l-.45 1.445h.937l-.474-1.445zm4.084-.367h-.463v1.382h.49c.316 0 .45-.044.575-.165.114-.114.172-.3.172-.551 0-.236-.05-.407-.165-.515-.121-.107-.303-.15-.609-.15zm13.254-7.163H1.755a.267.267 0 00-.273.262v2.074h20.663V4.714a.267.267 0 00-.273-.262zm-16.88.5c.38 0 .685.297.685.66a.675.675 0 01-.685.662c-.38 0-.686-.3-.686-.662 0-.363.306-.66.686-.66zm2.06 0c.38 0 .686.297.686.66a.675.675 0 01-.686.662c-.38 0-.686-.3-.686-.662-.003-.363.303-.66.686-.66zm-4.118 0c.38 0 .686.297.686.66a.675.675 0 01-.686.662c-.38 0-.685-.3-.685-.662 0-.363.306-.66.685-.66z" fill="#5CB615" fill-rule="nonzero"/></svg>
